X: 14724
T: Gan Ainm
R: reel
M: 4/4
K: Amixolydian
|:GB g2 fgag|fe g2 BcdB|GB g2 fgaf|gedB AAAB:|
|:GB g2 dBBg|dBgd B2 AB|GB g2 dBBa|gedB AAAB:|

